src/img/icons/up-btn-icon.svg

<?xml version="1.0" encoding="UTF-8" standalone="no"?>
<!-- Created with Inkscape (http://www.inkscape.org/) -->

<svg
   width="49.999996"
   height="49.999996"
   viewBox="0 0 13.229166 13.229166"
   version="1.1"
   id="svg1"
   xml:space="preserve"
   inkscape:version="1.3 (0e150ed6c4, 2023-07-21)"
   sodipodi:docname="рисунок.svg"
   xmlns:inkscape="http://www.inkscape.org/namespaces/inkscape"
   xmlns:sodipodi="http://sodipodi.sourceforge.net/DTD/sodipodi-0.dtd"
   xmlns="http://www.w3.org/2000/svg"
   xmlns:svg="http://www.w3.org/2000/svg"><sodipodi:namedview
     id="namedview1"
     pagecolor="#ffffff"
     bordercolor="#000000"
     borderopacity="0.25"
     inkscape:showpageshadow="2"
     inkscape:pageopacity="0.0"
     inkscape:pagecheckerboard="0"
     inkscape:deskcolor="#d1d1d1"
     inkscape:document-units="mm"
     inkscape:zoom="0.73139029"
     inkscape:cx="25.294293"
     inkscape:cy="24.610663"
     inkscape:window-width="1488"
     inkscape:window-height="1040"
     inkscape:window-x="250"
     inkscape:window-y="33"
     inkscape:window-maximized="0"
     inkscape:current-layer="layer1"
     inkscape:clip-to-page="false" 
     inkscape:label="Слой 1"
     inkscape:groupmode="layer"
     id="layer1"
     transform="translate(-98.474942,-141.70454)"
       style="fill:none"
       id="g1"
       transform="matrix(0.26458333,0,0,0.26458333,98.474942,141.70454)"/><path
         d="M 25,0 C 11.225,0 0,11.225 0,25 0,38.775 11.225,50 25,50 38.775,50 50,38.775 50,25 50,11.225 38.775,0 25,0 Z m 10.15,29.475 c -0.375,0.375 -0.85,0.55 -1.325,0.55 -0.475,0 -0.95,-0.175 -1.325,-0.55 l -7.5,-7.5 -7.5,7.5 c -0.725,0.725 -1.925,0.725 -2.65,0 -0.725,-0.725 -0.725,-1.925 0,-2.65 L 23.675,18 c 0.725,-0.725 1.925,-0.725 2.65,0 l 8.825,8.825 c 0.725,0.75 0.725,1.925 0,2.65 z"
         fill="#3399cc"
         id="path1" /></svg>

<svg width="50" height="50" viewBox="0 0 50 50" fill="none" >
<path d="M25 0C11.225 0 0 11.225 0 25C0 38.775 11.225 50 25 50C38.775 50 50 38.775 50 25C50 11.225 38.775 0 25 0ZM35.15 29.475C34.775 29.85 34.3 30.025 33.825 30.025C33.35 30.025 32.875 29.85 32.5 29.475L25 21.975L17.5 29.475C16.775 30.2 15.575 30.2 14.85 29.475C14.125 28.75 14.125 27.55 14.85 26.825L23.675 18C24.4 17.275 25.6 17.275 26.325 18L35.15 26.825C35.875 27.575 35.875 28.75 35.15 29.475Z" fill="#3399CC"/>
</svg>
